!!!COM: Palestrina, Giovanni Perluigi da
!!!OPR: Veni sponsa Christi
!!!OTL: Agnus II
**kern	**kern	**kern	**kern	**kern
*ICvox	*ICvox	*ICvox	*ICvox	*ICvox
*Ibass	*Itenor	*Itenor	*Icalto	*Icant
!Bassus	!Tenor 2	!Tenor 1	!Altus	!Cantus
*clefF4	*clefGv2	*clefGv2	*clefG2	*clefG2
*k[]	*k[]	*k[]	*k[]	*k[]
*G:mix	*G:mix	*G:mix	*G:mix	*G:mix
*M4/2	*M4/2	*M4/2	*M4/2	*M4/2
=1	=1	=1	=1	=1
0r	0r	1r	0r	0dd
.	.	[1G	.	.
=2	=2	=2	=2	=2
0r	0r	1G]	0g	1b
.	.	1B	.	1dd
=3	=3	=3	=3	=3
0r	0r	1c	1e	1ee
.	.	2G	1g	1dd
.	.	[2g	.	.
=4	=4	=4	=4	=4
1r	0d	2g]	1a	0dd
.	.	2f#	.	.
[1G	.	1g	2.b	.
.	.	.	4cc	.
=5	=5	=5	=5	=5
1G]	1B	1d	4dd	0r
.	.	.	4cc	.
.	.	.	4b	.
.	.	.	4a	.
1B	1d	2r	[1g	.
.	.	2G	.	.
=6	=6	=6	=6	=6
1c	1e	4c	2g]	0r
.	.	4d	.	.
.	.	4e	1cc	.
.	.	4f	.	.
2G	1d	2.g	.	.
[2G	.	.	4b	.
.	.	4f#	4a	.
=7	=7	=7	=7	=7
2G]	0d	2g	2b	1r
2F#	.	2.a	2a	.
1G	.	.	2.b	1dd
.	.	4g	.	.
.	.	[2g	.	.
.	.	.	4g	.
=8	=8	=8	=8	=8
2D	0r	2g]	1a	1dd
2D	.	2f#	.	.
1E	.	2g	1g	2b
.	.	2e	.	2b
=9	=9	=9	=9	=9
2C	0r	2e	2r	1cc
2C	.	1c	2g	.
2G	.	.	1g	1dd
2G	.	2B	.	.
=10	=10	=10	=10	=10
1C	1r	4A	2e	2.cc
.	.	4G	.	.
.	.	1c	2e	.
.	.	.	.	4b
[1D	1d	.	2f#	2a
.	.	2B	[2g	2g
=11	=11	=11	=11	=11
1D]	1d	2A	2g]	1a
.	.	2d	2f#	.
2r	2B	1G	2.g	1g
2G	2B	.	.	.
.	.	.	4f#	.
=12	=12	=12	=12	=12
2A	1c	2r	4e	0r
.	.	.	4d	.
1c	.	2g	2c	.
.	1d	1g	1G	.
2B	.	.	.	.
=13	=13	=13	=13	=13
4c	2.c	2e	2r	0r
4B	.	.	.	.
4A	.	2e	2c	.
4G	4B	.	.	.
2F	2A	2f	1c	.
2E	2G	[2g	.	.
=14	=14	=14	=14	=14
1D	1A	2g]	2d	0r
.	.	2f#	2d	.
2r	1G	2g	2.B	.
2G	.	4G	.	.
.	.	4A	4c	.
=15	=15	=15	=15	=15
1G	0r	4B	2d	0r
.	.	4c	.	.
.	.	1d	2B	.
2E	.	.	1e	.
2E	.	[2c	.	.
=16	=16	=16	=16	=16
2F	0r	2c]	1d	1r
2G	.	2B	.	.
1F	.	1A	2r	[1cc
.	.	.	[2f	.
=17	=17	=17	=17	=17
1C	0r	1G	2f]	2cc]
.	.	.	2e	2cc
2r	.	2F	4a	1cc
.	.	.	4g	.
[2F	.	[2f	4a	.
.	.	.	4b	.
=18	=18	=18	=18	=18
2F]	0r	2f]	2.cc	1a
2F	.	2f	.	.
.	.	.	4b	.
1F	.	1f	1a	1cc
=19	=19	=19	=19	=19
1G	1r	1d	1g	1b
2.F	[1c	1f	2.cc	1a
4G	.	.	4b	.
=20	=20	=20	=20	=20
2A	2c]	2.e	2a	0r
2E	2c	.	2g	.
.	.	8f	.	.
.	.	8g	.	.
2F	1c	2a	2f	.
2C	.	2g	2e	.
=21	=21	=21	=21	=21
4D	1A	1f	1d	0r
4E	.	.	.	.
4F	.	.	.	.
4G	.	.	.	.
1A	1c	1e	2r	.
.	.	.	[2a	.
=22	=22	=22	=22	=22
1E	1B	2r	2a]	1r
.	.	1e	2g	.
1F	1A	.	2a	2r
.	.	2d	2a	[2a
=23	=23	=23	=23	=23
1E	0r	1e	2cc	2a]
.	.	.	2b	2g
1A	.	2e	2.cc	2a
.	.	[2f	.	2a
.	.	.	4b	.
=24	=24	=24	=24	=24
0r	0r	4f]	4a	2.cc
.	.	4e	4g	.
.	.	2c	1g	.
.	.	.	.	4b
.	.	1d	.	1a
.	.	.	2f#	.
=25	=25	=25	=25	=25
2r	1r	2e	4g	1g
.	.	.	4f	.
1E	.	1g	4e	.
.	.	.	4d	.
.	2r	.	2c	1r
2D	[2A	2f	2d	.
=26	=26	=26	=26	=26
2E	2A]	1e	1B	0r
2E	2G	.	.	.
2.F	2A	1c	2A	.
.	2A	.	[2a	.
8E	.	.	.	.
8D	.	.	.	.
=27	=27	=27	=27	=27
1C	2.c	1e	4a]	1r
.	.	.	4g	.
.	.	.	1g	.
.	4B	.	.	.
1D	1A	2.d	.	2r
.	.	.	2f	[2dd
.	.	4c	.	.
=28	=28	=28	=28	=28
1E	1G	2B	2g	2dd]
.	.	4A	2e	2cc
.	.	4G	.	.
2D	1r	2A	2.f	2dd
[2d	.	2B-	.	2dd
.	.	.	4g	.
=29	=29	=29	=29	=29
2d]	0r	2A	2.a	2ff
2c#	.	1a	.	2ee
.	.	.	4g	.
2d	.	.	4f	1dd
.	.	.	4e	.
2B-	.	2g	2d	.
=30	=30	=30	=30	=30
2.A	1r	2a	2e	2.cc
.	.	2A	1a	.
4G	.	.	.	4b
4F	2r	2c	.	1a
4E	.	.	.	.
2D	[2d	2d	2f	.
=31	=31	=31	=31	=31
1E	2d]	2B	2g	1g
.	2c	4A	2e	.
.	.	4G	.	.
1D	2d	[1A	2.f	2r
.	2d	.	.	[2dd
.	.	.	4g	.
=32	=32	=32	=32	=32
1A	2f	0A]	2.a	2dd]
.	2e	.	.	2cc
.	.	.	4g	.
1D	1d	.	4f	2dd
.	.	.	4d	.
.	.	.	[2a	[2ff
=33	=33	=33	=33	=33
2F	2.c	1r	2a]	2ff]
2C	.	.	1g	2ee
.	4B	.	.	.
1D	1A	2r	.	2.dd
.	.	[2d	2f#	.
.	.	.	.	4cc
=34	=34	=34	=34	=34
2G	[0G	2d]	2g	2b
4C	.	2.c	1e	2cc
4D	.	.	.	.
4E	.	.	.	1g
4F	.	8B	.	.
.	.	8A	.	.
2G	.	2B	2d	.
=35	=35	=35	=35	=35
2C	0G]	1.c	2e	2r
1C	.	.	2e	1ee
.	.	.	2.g	.
2BB	.	2d	.	2dd
.	.	.	4f	.
=36	=36	=36	=36	=36
0C	[0G	0c	0e	2ee
.	.	.	.	2ee
.	.	.	.	1cc
=37	=37	=37	=37	=37
0G	0G]	0B	0d	0dd
==	==	==	==	==
*-	*-	*-	*-	*-
!!!CDT: 1525/^1526/-1594/2/2
!!!OCY: Italia
!!!AGN: Mass (Parody)
!!!AST: renaissance, vocal
!!!ASW: Motet 1563 (Palestrina)
!!!PWK: Masses, Book 9
!!!RNB: Cadence finals: G
!!!YOR: Le Opere Complete, v. 25, p. 30
!!!YOO: Rome, Italy: Fratelli Scalera
!!!END: 1992//
!!!EED: John Miller
!!!YEC: Copyright 2000, John Miller
!!!YEN: United States of America
!!!YEM: Rights to all derivative electronic formats reserved.
!!!YEM: Refer to licensing agreement for further details.
!!!YEM: This file must be accompanied by the licensing agreement.
!!!YEM: A copy of the licensing agreement may be found at http://www.music-cog.ohio-state.edu/HumdrumDatabases/Palestrina/license.txt
!!!EMD: converted to Humdrum by Bret Aarden
